!!!!SEGMENT: pl-kk--kk-i-273--004_anonim--alleluia-post-partum-virgo.krn
!!!cenid: 17xx:2076
!!!COM: Anonim
!!!COM-rismID: pe30004985
!!!CDT:
!!!CNT:
!!!OTL: Alleluia post partum Virgo
!!!PDT:
!!!AGN: Sacred
!!!SMS-siglum: PL-Kk
!!!SMS-shelfmark: Kk.I.273
!!!SMS-shelfwork: 004 W
!!!SMS-variant:
!!!SMS-altvar:
!!!NIFC-rismSourceID: 1001147462
!!!NIFC-islandoraID: pl-kk:4863
!!!URL-pdf-islandora: https://repozytorium.nifc.pl/islandora/object/pl-kk%3A4863/datastream/PDF/view
!!!URL-scan: https://polish.musicsources.pl/pl/lokalizacje/galeria/rekopisy/5891 @EN{Scan on Polish Music Herritage in Open Access Website} @PL{Skany w portalu Dziedzictwo Muzyki Polskiej w otwartym dostępie}
!!!ONB-nifc: UWAGA: utwory w zbiorze: 1. Rorate caeli desuper, 2. Tollite portas, 3. Ecce virgo concipiet, 4. Alleluia post partum Virgo
!!!AIN: 1 alto 2 empty 1 tenor 1 vox
!!!key:
**kern	**kern	**text	**kern	**text	**kern	**text	**kern	**text
*part5	*part4	*part4	*part3	*part3	*part2	*part2	*part1	*part1
*staff5	*staff4	*staff4	*staff3	*staff3	*staff2	*staff2	*staff1	*staff1
*Iempty	*Iempty	*	*Itenor	*	*Ialto	*	*Ivox	*
*I"Baſso Ripieno.	*I"Baſso	*	*I"Tenore	*	*I"Alto.	*	*I"Canto.	*
*I'B rip	*I'B	*	*I'T	*	*I'A	*	*I'S	*
*clefF4	*clefF4	*	*clefC4	*	*clefC3	*	*clefC1	*
*k[b-]	*k[b-e-]	*	*k[b-]	*	*k[b-]	*	*k[b-]	*
*g:	*g:	*	*g:	*	*g:	*	*g:	*
*M3/2	*M3/2	*	*M3/2	*	*M3/2	*	*M3/2	*
=1-	=1-	=1-	=1-	=1-	=1-	=1-	=1-	=1-
*	*2\right	*	*2\right	*	*2\right	*	*	*
!	!LO:TX:a:t=P:problem=inicjał "A" na pięciolinii przed kluczem	!	!LO:TX:a:t=P:problem=inicjał "A" na pięciolinii przed kluczem	!	!LO:TX:a:t=P:problem=inicjał "A" na pięciolinii przed kluczem	!	!LO:TX:a:t=P:problem=inicjał "A" na pięciolinii przed kluczem	!
!	!LO:TX:i:a:t=Post Nativitatem	!	!	!	!	!	!	!
!	!LO:TX:a:t=P:B-,E-,BB-:problem=w źródle trzy bemole przy kluczu	!	!LO:TX:i:a:t=Post Nativitatem	!	!	!	!	!
!LO:TX:a:t=P:problem=brak karty w źródle	!	!	!	!	!LO:TX:i:a:t=Post Nativitatem	!	!LO:TX:i:a:t=Post Nativitatem	!
!	!LO:TX:a:t=P:problem=napis "Post Nativitatem" na pięciolinii przed inicjałem	!	!LO:TX:a:t=P:problem=napis "Post Nativitatem" na pięciolinii przed inicjałem	!	!	!	!	!
1.ryy	2G\	Al-	2B-\	Al-	2d\	Al-	2g/	Al-
.	2G\	-le-	2B-\	-le-	2d\	-le-	2g/	-le-
!	!LO:TX:t=P:problem=kreska pseudotaktowa	!	!LO:TX:t=P:problem=kreska pseudotaktowa	!	!LO:TX:t=P:problem=kreska pseudotaktowa	!	!LO:TX:t=P:problem=kreska pseudotaktowa	!
.	2D/	-lu-	2A\	-lu-	2d\	-lu-	2f#X/	-lu-
=2-	=2-	=2-	=2-	=2-	=2-	=2-	=2-	=2-
1.ryy	(>2.G\	-ia	(>2.B-\	-ia	1d,	-ia	2g,/	-ia
*	*	*	*	*	*	*	*2\right	*ij
.	.	.	.	.	.	.	2b-\	Al-
.	4A\	.	4c\)	.	.	.	.	.
!	!LO:TX:t=P:problem=kreska pseudotaktowa	!	!LO:TX:t=P:problem=kreska pseudotaktowa	!	!LO:TX:t=P:problem=kreska pseudotaktowa	!	!LO:TX:t=P:problem=kreska pseudotaktowa	!
.	2B-\)	.	2d\	.	2d\	al-	2b-\	-le-
=3-	=3-	=3-	=3-	=3-	=3-	=3-	=3-	=3-
*	*	*ij	*	*ij	*	*	*	*
1.ryy	2F\	Al-	2c\	Al-	2f\	-le-	1a	-lu-
.	2F\	-le-	2c\	-le-	2f\	-lu-	.	.
!	!LO:TX:t=P:problem=kreska pseudotaktowa	!	!LO:TX:t=P:problem=kreska pseudotaktowa	!	!LO:TX:t=P:problem=kreska pseudotaktowa	!	!LO:TX:t=P:problem=kreska pseudotaktowa	!
.	2G\	-lu-	2B-X\	-lu-	2e\	-ia	2g/	.
=4-	=4-	=4-	=4-	=4-	=4-	=4-	=4-	=4-
1.ryy	1F,	-ia	1c,	-ia	1f,	.	1a,	-ia
*	*	*Xij	*	*Xij	*	*ij	*	*Xij
!	!LO:TX:t=P:problem=kreska pseudotaktowa	!	!LO:TX:t=P:problem=kreska pseudotaktowa	!	!LO:TX:t=P:problem=kreska pseudotaktowa	!	!LO:TX:t=P:problem=kreska pseudotaktowa	!
.	2F\	al-	2c\	al-	2f\	al-	2a\	al-
=5-	=5-	=5-	=5-	=5-	=5-	=5-	=5-	=5-
1.ryy	1BB-	-le-	1d	-le-	1f	-le-	1b-	-le-
!	!	!	!LO:TX:t=P:problem=kreska pseudotaktowa	!	!LO:TX:t=P:problem=kreska pseudotaktowa	!	!LO:TX:t=P:problem=kreska pseudotaktowa	!
.	2BB-/	-lu-	2d\	-lu-	2f\	-lu-	2b-\	-lu-
!	!LO:LB:g=original	!	!	!	!	!	!	!
=6-	=6-	=6-	=6-	=6-	=6-	=6-	=6-	=6-
1.ryy	2F,\	-ia	1c,	-ia	2f,\	-ia	1a,	-ia
*	*	*	*	*	*	*Xij	*	*
!	!	!	!	!	!LO:TX:t=P:problem=kreska pseudotaktowa	!	!	!
.	2F\	al-	.	.	1f	al-	.	.
*	*	*	*custos:B-	*	*	*	*	*
*	*	*	*	*	*	*	*	*ij
!	!LO:TX:t=P:problem=kreska pseudotaktowa	!	!LO:TX:t=P:problem=kreska pseudotaktowa	!	!	!	!	!
.	2D/	.	2d\	al-	.	.	4b-\	al-
!	!	!	!	!	!	!	!LO:TX:t=P:problem=kreska pseudotaktowa	!
.	.	.	.	.	.	.	4a\	.
!	!	!	!LO:LB:g=original	!	!	!	!	!
=7-	=7-	=7-	=7-	=7-	=7-	=7-	=7-	=7-
1.ryy	2G\	-le-	2B-\	-le-	1d	-le-	2g/	.
!	!LO:TX:t=P:problem=kreska pseudotaktowa	!	!	!	!	!	!	!
.	1D	-lu-	2A/	.	.	.	2g/	-le-
!	!	!	!LO:TX:t=P:problem=kreska pseudotaktowa	!	!LO:TX:t=P:problem=kreska pseudotaktowa	!	!LO:TX:t=P:problem=kreska pseudotaktowa	!
.	.	.	2A/	-lu-	2d\	-lu-	2f#X/	-lu-
=8-	=8-	=8-	=8-	=8-	=8-	=8-	=8-	=8-
!	!LO:TX:t=P:problem=kreska pseudotaktowa	!	!LO:TX:t=P:problem=kreska pseudotaktowa	!	!LO:TX:t=P:problem=kreska pseudotaktowa	!	!LO:TX:t=P:problem=kreska pseudotaktowa	!
1.ryy	1.GG	-ia	1.G,	-ia	1.d	-ia	1.g,	-ia
*	*	*	*	*	*	*	*	*Xij
=9-	=9-	=9-	=9-	=9-	=9-	=9-	=9-	=9-
*	*	*ij	*	*ij	*	*	*	*
1.ryy	2D\	al-	2A\	al-	2d\	al-	2f#X/	al-
.	2D\	-le-	2A\	-le-	2d\	-le-	2f#/	-le-
!	!LO:TX:t=P:problem=kreska pseudotaktowa	!	!LO:TX:t=P:problem=kreska pseudotaktowa	!	!	!	!LO:TX:t=P:problem=kreska pseudotaktowa	!
.	2G\	-lu-	2B-\	-lu-	(>4d\	-lu-	2g/	-lu-
!	!	!	!	!	!LO:TX:t=P:problem=kreska pseudotaktowa	!	!	!
.	.	.	.	.	4e\)	.	.	.
=10-	=10-	=10-	=10-	=10-	=10-	=10-	=10-	=10-
1.ryy	1F,	-ia	2.c\	-ia	(>4f\	-ia	(>2.a\	-ia
*	*	*Xij	*	*Xij	*	*	*	*
.	.	.	.	.	4g\	.	.	.
.	.	.	.	.	4a\)	.	.	.
.	.	.	4B-\	.	4g\	.	4b-\)	.
!	!LO:TX:t=P:problem=kreska pseudotaktowa	!	!	!	!LO:TX:t=P:problem=kreska pseudotaktowa	!	!LO:TX:t=P:problem=kreska pseudotaktowa	!
.	2F\	al-	4A\	.	2f\	.	2cc\	.
!	!	!	!LO:TX:t=P:problem=kreska pseudotaktowa	!	!	!	!	!
.	.	.	4B-\	.	.	.	.	.
!	!	!	!	!	!LO:LB:g=original	!	!LO:LB:g=original	!
=11-	=11-	=11-	=11-	=11-	=11-	=11-	=11-	=11-
*	*	*	*	*	*	*ij	*	*ij
1.ryy	2BB-/	-le-	2A/	al-	2f\	al-	2dd\	al-
.	2.C/	.	2.G/	-le-	2f\	-le-	2.cc\	-le-
!	!	!	!	!	!LO:TX:t=P:problem=kreska pseudotaktowa	!	!	!
.	.	.	.	.	2e\	-lu-	.	.
!	!LO:TX:t=P:problem=kreska pseudotaktowa	!	!LO:TX:t=P:problem=kreska pseudotaktowa	!	!	!	!LO:TX:t=P:problem=kreska pseudotaktowa	!
.	4C/	-lu-	4G/	-lu-	.	.	4cc\	-lu-
=12-	=12-	=12-	=12-	=12-	=12-	=12-	=12-	=12-
1.ryy	2FF,/	-ia	2F,/	-ia	2f,\	-ia	2cc,\	-ia
*	*	*ij	*	*ij	*	*Xij	*	*Xij
.	2BB-/	al-	2d\	al-	2f\	al-	2b-\	al-
!	!LO:TX:t=P:problem=kreska pseudotaktowa	!	!LO:TX:t=P:problem=kreska pseudotaktowa	!	!LO:TX:t=P:problem=kreska pseudotaktowa	!	!LO:TX:t=P:problem=kreska pseudotaktowa	!
.	2BB-/	-le-	2d\	-le-	2f\	-le-	2b-\	-le-
=13-	=13-	=13-	=13-	=13-	=13-	=13-	=13-	=13-
1.ryy	2F\	-lu-	2c\	-lu-	2f\	-lu-	2a\	-lu-
.	2F,\	-ia	2c,\	-ia	2f,\	-ia	2g,/	-ia,
*	*	*Xij	*	*Xij	*	*ij	*	*ij
!	!LO:TX:t=P:problem=kreska pseudotaktowa	!	!LO:TX:t=P:problem=kreska pseudotaktowa	!	!LO:TX:t=P:problem=kreska pseudotaktowa	!	!LO:TX:t=P:problem=kreska pseudotaktowa	!
.	2D\	al-	2d\	al-	2f\	al-	2b-\	al-
=14-	=14-	=14-	=14-	=14-	=14-	=14-	=14-	=14-
1.ryy	2G\	-le-	2B-\	-le-	2d\	-le-	2g/	-le-
!	!	!	!LO:TX:t=P:problem=kreska pseudotaktowa	!	!LO:TX:t=P:problem=kreska pseudotaktowa	!	!	!
.	2.D\	-lu-	1A	-lu-	1d	-lu-	(<2g/	-lu-
!	!	!	!	!	!	!	!LO:TX:t=P:problem=kreska pseudotaktowa	!
.	.	.	.	.	.	.	2f#X/)	.
!	!LO:TX:t=P:problem=kreska pseudotaktowa	!	!	!	!	!	!	!
.	4D\	-ia	.	.	.	.	.	.
=15-	=15-	=15-	=15-	=15-	=15-	=15-	=15-	=15-
1.ryy	1GG	.	2G/	-ia	1d,	-ia	1g	-ia
*	*	*	*	*	*	*Xij	*	*Xij
.	.	.	2r	.	.	.	.	.
!	!LO:TX:t=P:problem=kreska pseudotaktowa	!	!LO:TX:t=P:problem=kreska pseudotaktowa	!	!LO:TX:t=P:problem=kreska pseudotaktowa	!	!LO:TX:t=P:problem=kreska pseudotaktowa	!
.	2r	.	2r	.	2G/	Post	2r	.
=16-	=16-	=16-	=16-	=16-	=16-	=16-	=16-	=16-
!	!	!	!	!	!	!	!LO:TX:t=P:problem=kreska pseudotaktowa	!
!	!LO:N:vis=0	!	!	!	!	!	!LO:N:vis=00	!
1.ryy	0.r	.	2r	.	2d\	par-	00.r	.
.	.	.	2r	.	2d,\	-t(um)	.	.
*	*	*	*	*	*	*ij	*	*
!	!	!	!LO:TX:t=P:problem=kreska pseudotaktowa	!	!LO:TX:t=P:problem=kreska pseudotaktowa	!	!	!
.	.	.	2D/	Post	2d\	Post	.	.
=17-	=17-	=17-	=17-	=17-	=17-	=17-	=17-	=17-
1.ryy	.	.	2G/	par-	1e-X	par-	.	.
.	.	.	2G,/	-tum	.	.	.	.
*	*	*	*custos:A	*	*	*	*	*
!	!	!	!LO:TX:t=P:problem=kreska pseudotaktowa	!	!LO:TX:t=P:problem=kreska pseudotaktowa	!	!	!
.	.	.	2G/	po[st]	2d\	-t(um)	.	.
*	*	*	*	*	*	*Xij	*	*
!	!	!	!LO:LB:g=original	!	!	!	!	!
=18-	=18-	=18-	=18-	=18-	=18-	=18-	=18-	=18-
!	!LO:N:vis=1	!	!	!	!	!	!	!
!	!LO:TX:t=P:problem=kreska pseudotaktowa	!	!	!	!	!	!	!
1.ryy	1.r	.	1A	par-	4c/	Vir-	.	.
.	.	.	.	.	4B-/	.	.	.
.	.	.	.	.	4c\	.	.	.
.	.	.	.	.	4d\	.	.	.
!	!	!	!LO:TX:t=P:problem=kreska pseudotaktowa	!	!	!	!	!
.	.	.	2A/	-tum	(>4e-\	-go	.	.
!	!	!	!	!	!LO:TX:t=P:problem=kreska pseudotaktowa	!	!	!
.	.	.	.	.	4f,\)	.	.	.
=19-	=19-	=19-	=19-	=19-	=19-	=19-	=19-	=19-
1.ryy	2r	.	4G/	Vir-	2g\	in-	.	.
.	.	.	4F/	.	.	.	.	.
.	2r	.	4G/	.	2g\	-vi-	.	.
.	.	.	4A/	.	.	.	.	.
!	!LO:TX:t=P:problem=kreska pseudotaktowa	!	!	!	!	!	!	!
.	2GG/	Post	4B-/	.	4d\	-o-	.	.
!	!	!	!LO:TX:t=P:problem=kreska pseudotaktowa	!	!LO:TX:t=P:problem=kreska pseudotaktowa	!	!	!
.	.	.	4G/	.	4e-\	.	.	.
=20-	=20-	=20-	=20-	=20-	=20-	=20-	=20-	=20-
1.ryy	2D\	par-	1A	.	4f\	-la-	2r	.
.	.	.	.	.	4e-\	.	.	.
.	2D,\	-t(um)	.	.	4f\	.	2r	.
.	.	.	.	.	4g\	.	.	.
!	!	!	!LO:TX:t=P:problem=kreska pseudotaktowa	!	!LO:TX:t=P:problem=kreska pseudotaktowa	!	!LO:TX:t=P:problem=kreska pseudotaktowa	!
.	2D\	po[st]	2A/	-go	2a\	.	2d/	Post
!	!	!	!	!	!LO:LB:g=original	!	!	!
=21-	=21-	=21-	=21-	=21-	=21-	=21-	=21-	=21-
!	!LO:SIC:t:o=1-E	!	!LO:N:vis=1	!	!	!	!	!
1.ryy	1E-	par-	1.r	.	2g\	.	1g	par-
.	.	.	.	.	2g\	-ta	.	.
!	!LO:TX:t=P:problem=kreska pseudotaktowa	!	!	!	!LO:TX:t=P:problem=kreska pseudotaktowa	!	!LO:TX:t=P:problem=kreska pseudotaktowa	!
.	2D\	-tum	.	.	2f\	per-	2g\	-tum
=22-	=22-	=22-	=22-	=22-	=22-	=22-	=22-	=22-
1.ryy	4C/	Vir-	2r	.	2e-X\	-man-	2a\	Vir-
.	4BB-/	.	.	.	.	.	.	.
!	!	!	!	!	!LO:TX:t=P:problem=kreska pseudotaktowa	!	!	!
.	4C/	.	2r	.	1e-	-ſi-	4g/	.
.	4D/	.	.	.	.	.	4fny/	.
!	!	!	!LO:TX:t=P:problem=kreska pseudotaktowa	!	!	!	!	!
.	4E-\	.	2G/	post	.	.	4g/	.
!	!LO:TX:t=P:problem=kreska pseudotaktowa	!	!	!	!	!	!LO:TX:t=P:problem=kreska pseudotaktowa	!
.	4F\	.	.	.	.	.	4a/	.
=23-	=23-	=23-	=23-	=23-	=23-	=23-	=23-	=23-
!	!	!	!	!	!LO:TX:t=P:problem=kreska pseudotaktowa	!	!	!
1.ryy	2.G\	.	2G/	par-	1.d	-sti	2b-,\	-go
.	.	.	2G,/	-tum	.	.	2dd\	post
.	4F\	.	.	.	.	.	.	.
*	*	*	*	*ij	*	*	*	*
!	!LO:TX:t=P:problem=kreska pseudotaktowa	!	!LO:TX:t=P:problem=kreska pseudotaktowa	!	!	!	!LO:TX:t=P:problem=kreska pseudotaktowa	!
.	2E-,\	-go	2G/	post	.	.	2ee-X\	par-
=24-	=24-	=24-	=24-	=24-	=24-	=24-	=24-	=24-
!	!	!	!	!	!	!	!LO:TX:a:t=P:problem=niejednoznaczny zapis łuku	!
1.ryy	2D/	post	1d	par-	2r	.	(>2.ff\	.
!	!	!	!	!	!LO:TX:t=P:problem=kreska pseudotaktowa	!	!	!
.	(<4D/	par-	.	.	1G	post	.	.
.	4C/)	.	.	.	.	.	4ee-y\	-tum
!	!LO:TX:t=P:problem=kreska pseudotaktowa	!	!LO:TX:t=P:problem=kreska pseudotaktowa	!	!	!	!LO:TX:t=P:problem=kreska pseudotaktowa	!
.	2BB-,/	-t(um)	2d\	-tum	.	.	2dd\)	.
*	*	*	*	*Xij	*	*	*	*
=25-	=25-	=25-	=25-	=25-	=25-	=25-	=25-	=25-
*	*	*ij	*	*	*	*	*	*
1.ryy	2C/	post	1e-X	Vir-	2c\	par-	4g/	Vir-
.	.	.	.	.	.	.	4f/	.
.	2C/	par-	.	.	2c,\	-tum	4g/	.
.	.	.	.	.	.	.	4a/	.
*	*	*	*	*	*	*ij	*	*
!	!LO:TX:t=P:problem=kreska pseudotaktowa	!	!LO:TX:t=P:problem=kreska pseudotaktowa	!	!LO:TX:t=P:problem=kreska pseudotaktowa	!	!	!
.	2BB-,/	-t(um)	2d\	-go	2c\	post	2b-/	-go
*	*	*Xij	*	*	*	*	*	*
!	!	!	!	!	!	!	!LO:LB:g=original	!
=26-	=26-	=26-	=26-	=26-	=26-	=26-	=26-	=26-
1.ryy	4AA/	Vir-	(>4c\	in-	2d\	par-	2cc\	in-
.	4GG/	.	4B-\)	.	.	.	.	.
.	4AA/	.	(>4c\	-vi-	2d,\	-tum	2.cc\	-vi-
*	*	*	*	*	*	*Xij	*	*
.	4BB-/	.	4d\)	-o-	.	.	.	.
!	!LO:TX:t=P:problem=kreska pseudotaktowa	!	!LO:TX:t=P:problem=kreska pseudotaktowa	!	!LO:TX:t=P:problem=kreska pseudotaktowa	!	!	!
.	2C,/	-go	2e-X\	-la-	2c/	post	.	.
!	!	!	!	!	!	!	!LO:TX:t=P:problem=kreska pseudotaktowa	!
.	.	.	.	.	.	.	4b-\	-o-
=27-	=27-	=27-	=27-	=27-	=27-	=27-	=27-	=27-
1.ryy	2D\	in-	2.d\	.	1f	par-	(>1a	-la-
.	2D\	-vi-	.	.	.	.	.	.
.	.	.	4e-\	.	.	.	.	.
!	!LO:TX:t=P:problem=kreska pseudotaktowa	!	!	!	!LO:TX:t=P:problem=kreska pseudotaktowa	!	!LO:TX:t=P:problem=kreska pseudotaktowa	!
.	2D\	-o-	4f\	.	2f\	-t(um)	2dd\)	.
!	!	!	!LO:TX:t=P:problem=kreska pseudotaktowa	!	!	!	!	!
.	.	.	4d\	.	.	.	.	.
=28-	=28-	=28-	=28-	=28-	=28-	=28-	=28-	=28-
!	!	!	!	!	!	!	!LO:TX:t=P:problem=kreska pseudotaktowa	!
1.ryy	4C/	-la-	4e-X\	.	2g\	Vir-	1.g	-ta
.	4BB-/	.	4f\	.	.	.	.	.
.	4C/	.	4e-\	.	2g\	-go	.	.
.	4D/	.	4d\	.	.	.	.	.
!	!	!	!LO:TX:t=P:problem=kreska pseudotaktowa	!	!	!	!	!
.	4E-\	.	2c,\	-ta	1g\	in-	.	.
!	!LO:TX:t=P:problem=kreska pseudotaktowa	!	!	!	!	!	!	!
.	4F\	.	.	.	.	.	.	.
!	!	!	!LO:LB:g=original	!	!	!	!	!
=29-	=29-	=29-	=29-	=29-	=29-	=29-	=29-	=29-
1.ryy	1G	.	2B-\	in-	.	.	2r	.
.	.	.	4B-\	-vi-	(>4f\	-vi-	2r	.
.	.	.	4B-\	-o-	4eny\)	o-	.	.
!	!	!	!	!	!LO:TX:t=P:problem=kreska pseudotaktowa	!	!	!
.	4F\	.	(<4A/	-la-	[<2d\	-la-	1a\	in-
!	!LO:TX:t=P:problem=kreska pseudotaktowa	!	!LO:TX:t=P:problem=kreska pseudotaktowa	!	!	!	!	!
.	4E-\	.	4G/)	.	.	.	.	.
=30-	=30-	=30-	=30-	=30-	=30-	=30-	=30-	=30-
!	!	!	!	!	!LO:N:xstem:cue	!	!	!
1.ryy	2.D\	.	2F,/	-ta	4d\]	.	.	.
.	.	.	.	.	4eny\	.	.	.
.	.	.	4f\	per-	4f\	.	2.dd\	-vi-
.	4En\	-ta	4en\	.	4g\	.	.	.
*	*custos:G	*	*	*	*	*	*	*
!	!LO:TX:t=P:problem=kreska pseudotaktowa	!	!LO:TX:t=P:problem=kreska pseudotaktowa	!	!LO:TX:t=P:problem=kreska pseudotaktowa	!	!	!
.	2F\	per-	2d\	.	2a,\	-ta	.	.
!	!	!	!	!	!	!	!LO:TX:t=P:problem=kreska pseudotaktowa	!
.	.	.	.	.	.	.	4cc\	-o-
!	!LO:LB:g=original	!	!	!	!	!	!	!
=31-	=31-	=31-	=31-	=31-	=31-	=31-	=31-	=31-
1.ryy	2G\	-man-	2d\	-man-	(>2g\	per-	2b-\	-la-
!	!	!	!	!	!	!	!LO:TX:t=P:problem=kreska pseudotaktowa	!
.	2A\	-si-	(>2d\	-si-	2e\)	.	1a	.
!	!LO:TX:t=P:problem=kreska pseudotaktowa	!	!LO:TX:t=P:problem=kreska pseudotaktowa	!	!LO:TX:t=P:problem=kreska pseudotaktowa	!	!	!
.	2AA/	.	2c#X\)	-ſti	2a\	-man-	.	.
=32-	=32-	=32-	=32-	=32-	=32-	=32-	=32-	=32-
1.ryy	2.D,/	-sti	2d,\	.	(>2.a\	-si-	2a,\	-ta
.	.	.	4d\	per-	.	.	(>2a\	per-
.	4AA/	per-	4cny\	.	4g\)	.	.	.
!	!LO:TX:t=P:problem=kreska pseudotaktowa	!	!LO:TX:t=P:problem=kreska pseudotaktowa	!	!LO:TX:t=P:problem=kreska pseudotaktowa	!	!LO:TX:t=P:problem=kreska pseudotaktowa	!
.	2BB-/	.	2B-X\	-man-	2f,\	-ſti	2d/)	.
!	!	!	!	!	!LO:LB:g=original	!	!	!
=33-	=33-	=33-	=33-	=33-	=33-	=33-	=33-	=33-
1.ryy	2GG/	-man-	2B-\	-si-	2r	.	2g/	-man-
!	!LO:TX:t=P:problem=kreska pseudotaktowa	!	!LO:TX:t=P:problem=kreska pseudotaktowa	!	!	!	!LO:TX:t=P:problem=kreska pseudotaktowa	!
.	1D	-ſi-	1A	-ſti	2d\	De-	1a	-si-
!	!	!	!	!	!LO:TX:t=P:problem=kreska pseudotaktowa	!	!	!
.	.	.	.	.	2d\	-i	.	.
=34-	=34-	=34-	=34-	=34-	=34-	=34-	=34-	=34-
1.ryy	2GG,/	-sti	(>4B-\	.	1d	Ge-	2g,/	-ſti
.	.	.	4A,\)	.	.	.	.	.
.	2G\	De-	4B-\	De-	.	.	2g/	De-
.	.	.	4c\	.	.	.	.	.
!	!LO:TX:t=P:problem=kreska pseudotaktowa	!	!LO:TX:t=P:problem=kreska pseudotaktowa	!	!LO:TX:t=P:problem=kreska pseudotaktowa	!	!LO:TX:t=P:problem=kreska pseudotaktowa	!
.	2G\	-i	2d\	.	2d\	-ni-	2g,/	-i
=35-	=35-	=35-	=35-	=35-	=35-	=35-	=35-	=35-
*	*	*	*	*	*	*	*	*ij
1.ryy	(<1C	Ge-	(>4e-X\	-i	1c,	-trix	1g	De-
.	.	.	4d\)	.	.	.	.	.
.	.	.	2c\	Ge-	.	.	.	.
*	*	*	*	*	*	*ij	*	*
!	!LO:TX:t=P:problem=kreska pseudotaktowa	!	!LO:TX:t=P:problem=kreska pseudotaktowa	!	!LO:TX:t=P:problem=kreska pseudotaktowa	!	!	!
.	2GG/)	.	2B-\	.	2d\	De-	2g/	-i
*	*	*	*	*	*	*	*	*Xij
=36-	=36-	=36-	=36-	=36-	=36-	=36-	=36-	=36-
1.ryy	1D	.	4d\	.	2d\	-i	1a	Ge-
.	.	.	8c\L	.	.	.	.	.
.	.	.	8B-\J	.	.	.	.	.
.	.	.	2.A/	.	2.d\	Ge-	.	.
!	!LO:TX:t=P:problem=kreska pseudotaktowa	!	!	!	!	!	!LO:TX:t=P:problem=kreska pseudotaktowa	!
.	2D\	-ni-	.	.	.	.	2d/	-ni-
!	!	!	!LO:TX:t=P:problem=kreska pseudotaktowa	!	!LO:TX:t=P:problem=kreska pseudotaktowa	!	!	!
.	.	.	4A/	-ni-	4d\	-ni-	.	.
=37-	=37-	=37-	=37-	=37-	=37-	=37-	=37-	=37-
!	!	!	!	!	!LO:TX:t=P:problem=po tej nucie kilka taktów wykreślonych	!	!	!
1.ryy	2GG/	-trix	2B-\	-trix	2d,\	-trix	2g/	-trix
*	*	*	*	*	*	*Xij	*	*
.	2r	.	2r	.	2d\	in-	2r	.
!	!LO:TX:t=P:problem=kreska pseudotaktowa	!	!LO:TX:t=P:problem=kreska pseudotaktowa	!	!LO:TX:t=P:problem=kreska pseudotaktowa	!	!LO:TX:t=P:problem=kreska pseudotaktowa	!
.	2r	.	2r	.	2d\	-ter-	2r	.
!	!	!	!LO:LB:g=original	!	!	!	!	!
=38-	=38-	=38-	=38-	=38-	=38-	=38-	=38-	=38-
!	!LO:TX:t=P:problem=kreska pseudotaktowa	!	!	!	!	!	!LO:TX:t=P:problem=kreska pseudotaktowa	!
!	!LO:N:vis=0	!	!	!	!	!	!LO:N:vis=1	!
1.ryy	0.r	.	2r	.	2g\	-ce-	1.r	.
.	.	.	2G/	in-	2g\	-de	.	.
!	!	!	!LO:TX:t=P:problem=kreska pseudotaktowa	!	!	!	!	!
.	.	.	2G/	-ter-	2g\	pro	.	.
=39-	=39-	=39-	=39-	=39-	=39-	=39-	=39-	=39-
1.ryy	.	.	2d\	-ce-	4fn\	no-	2r	.
.	.	.	.	.	4e\	.	.	.
.	.	.	2d\	-de	4d\	.	2d/	in-
.	.	.	.	.	4e\	.	.	.
!	!	!	!LO:TX:t=P:problem=kreska pseudotaktowa	!	!LO:TX:t=P:problem=kreska pseudotaktowa	!	!LO:TX:t=P:problem=kreska pseudotaktowa	!
.	.	.	2d\	pro	2f\	.	2d/	-ter-
!	!	!	!	!	!LO:LB:g=original	!	!LO:LB:g=original	!
=40-	=40-	=40-	=40-	=40-	=40-	=40-	=40-	=40-
1.ryy	2r	.	4B-\	no-	4d\	.	2g/	-ce-
.	.	.	4A\	.	4c\	.	.	.
.	2GG/	in-	4G\	.	4B-/	.	2g/	-de
.	.	.	4A\	.	4c/	.	.	.
!	!LO:TX:t=P:problem=kreska pseudotaktowa	!	!	!	!	!	!LO:TX:t=P:problem=kreska pseudotaktowa	!
.	2GG/	-ter-	4B-\	.	4d/	.	2g/	pro
!	!	!	!LO:TX:t=P:problem=kreska pseudotaktowa	!	!LO:TX:t=P:problem=kreska pseudotaktowa	!	!	!
.	.	.	4G/	.	4e/	.	.	.
=41-	=41-	=41-	=41-	=41-	=41-	=41-	=41-	=41-
1.ryy	2D\	-ce-	2A,/	-bis	2f\	-bis	4fn/	no-
.	.	.	.	.	.	.	4e/	.
!	!	!	!	!	!LO:TX:t=P:problem=kreska pseudotaktowa	!	!	!
.	2D\	-de	2A/	in-	1f	pro	4d/	.
.	.	.	.	.	.	.	4e/	.
!	!LO:TX:t=P:problem=kreska pseudotaktowa	!	!LO:TX:t=P:problem=kreska pseudotaktowa	!	!	!	!	!
.	2D\	pro	2A/	-ter-	.	.	4f/	.
!	!	!	!	!	!	!	!LO:TX:t=P:problem=kreska pseudotaktowa	!
.	.	.	.	.	.	.	4a/	.
=42-	=42-	=42-	=42-	=42-	=42-	=42-	=42-	=42-
1.ryy	4BB-/	no-	2d\	-ce-	2d\	no-	2.b-\	.
.	4AA/	.	.	.	.	.	.	.
.	4GG/	.	2d,\	-de	2d\	-bis	.	.
.	4AA/	.	.	.	.	.	4a\	-bis
!	!	!	!LO:TX:t=P:problem=kreska pseudotaktowa	!	!LO:TX:t=P:problem=kreska pseudotaktowa	!	!LO:TX:t=P:problem=kreska pseudotaktowa	!
.	4BB-/	.	2d\	pro	2r	.	2g/	.
!	!LO:TX:t=P:problem=kreska pseudotaktowa	!	!	!	!	!	!	!
.	4GG/	.	.	.	.	.	.	.
=43-	=43-	=43-	=43-	=43-	=43-	=43-	=43-	=43-
!	!LO:TX:t=P:problem=kreska pseudotaktowa	!	!	!	!	!	!	!
1.ryy	1.AA	.	4c\	no-	2r	.	2en/	pro
.	.	.	4B-\	.	.	.	.	.
.	.	.	4A\	.	2c/	in-	4c/	no-
.	.	.	4B-\	.	.	.	4d/	.
!	!	!	!	!	!LO:TX:t=P:problem=kreska pseudotaktowa	!	!	!
.	.	.	4c\	.	2c/	-ter-	4e/	.
!	!	!	!LO:TX:t=P:problem=kreska pseudotaktowa	!	!	!	!LO:TX:t=P:problem=kreska pseudotaktowa	!
.	.	.	4A\	.	.	.	4f/	.
=44-	=44-	=44-	=44-	=44-	=44-	=44-	=44-	=44-
!	!LO:TX:t=P:problem=kreska pseudotaktowa	!	!	!	!	!	!	!
1.ryy	1.GG	-bis	2B-,\	-bis	2g\	-ce-	2.g\	.
.	.	.	2G/	in-	2g\	-de	.	.
.	.	.	.	.	.	.	4a\	.
!	!	!	!LO:TX:t=P:problem=kreska pseudotaktowa	!	!LO:TX:t=P:problem=kreska pseudotaktowa	!	!	!
.	.	.	2G/	-ter-	2g\	pro	4b-\	.
!	!	!	!	!	!	!	!LO:TX:t=P:problem=kreska pseudotaktowa	!
.	.	.	.	.	.	.	4g\	.
=45-	=45-	=45-	=45-	=45-	=45-	=45-	=45-	=45-
1.ryy	2r	.	2d\	-ce-	4f\	no-	1d	.
.	.	.	.	.	4e\	.	.	.
.	2D\	in-	2d\	-de	4d\	.	.	.
.	.	.	.	.	4e\	.	.	.
!	!	!	!LO:TX:t=P:problem=kreska pseudotaktowa	!	!	!	!LO:TX:t=P:problem=kreska pseudotaktowa	!
.	2D\	-te[r]-	2d\	pro	4f\	.	2d/	-bis
!	!	!	!	!	!LO:TX:t=P:problem=kreska pseudotaktowa	!	!	!
.	.	.	.	.	4a\	.	.	.
!	!LO:LB:g=original	!	!	!	!	!	!	!
=46-	=46-	=46-	=46-	=46-	=46-	=46-	=46-	=46-
1.ryy	2G\	-ce-	4B-\	no-	1g	.	2r	.
.	.	.	4A\	.	.	.	.	.
.	2G\	-de	4G\	.	.	.	2b-\	in-
.	.	.	4A\	.	.	.	.	.
!	!LO:TX:t=P:problem=kreska pseudotaktowa	!	!	!	!LO:TX:t=P:problem=kreska pseudotaktowa	!	!LO:TX:t=P:problem=kreska pseudotaktowa	!
.	2G\	pro	4B-\	.	2g\	-bis	2b-\	-ter-
!	!	!	!LO:TX:t=P:problem=kreska pseudotaktowa	!	!	!	!	!
.	.	.	4G/	.	.	.	.	.
=47-	=47-	=47-	=47-	=47-	=47-	=47-	=47-	=47-
1.ryy	4F\	no-	2d\	.	2r	.	2ff\	-ce-
.	4E-y\	.	.	.	.	.	.	.
.	4D\	.	2d\	-bis	2d\	in-	2ff\	-de
.	4E-\	.	.	.	.	.	.	.
!	!	!	!	!	!LO:TX:t=P:problem=kreska pseudotaktowa	!	!LO:TX:t=P:problem=kreska pseudotaktowa	!
.	4F\	.	2d\	pro	2d\	-ter-	2ff\	pro
!	!LO:TX:t=P:problem=kreska pseudotaktowa	!	!	!	!	!	!	!
.	4D\	.	.	.	.	.	.	.
!	!	!	!LO:LB:g=original	!	!	!	!	!
=48-	=48-	=48-	=48-	=48-	=48-	=48-	=48-	=48-
1.ryy	1En	.	4d\	.	2g\	-ce-	2een\	no-
.	.	.	8c\L	.	.	.	.	.
.	.	.	8B-\J	.	.	.	.	.
!	!	!	!LO:TX:t=P:problem=kreska pseudotaktowa	!	!	!	!	!
.	.	.	1c	.	2g\	-de	2ee\	-bis
!	!LO:TX:t=P:problem=kreska pseudotaktowa	!	!	!	!LO:TX:t=P:problem=kreska pseudotaktowa	!	!LO:TX:t=P:problem=kreska pseudotaktowa	!
.	2E\	-bis	.	.	2g\	pro	2ee\	pro
=49-	=49-	=49-	=49-	=49-	=49-	=49-	=49-	=49-
1.ryy	2D\	pro	4d\	no-	4f\	no-	4a\	no-
.	.	.	4eny\	.	4e\	.	4g\	.
!	!LO:TX:t=P:problem=kreska pseudotaktowa	!	!	!	!	!	!	!
.	1D	no-	4f\	.	4d\	.	4f/	.
.	.	.	4e\	.	4e\	.	4g\	.
!	!	!	!LO:TX:t=P:problem=kreska pseudotaktowa	!	!	!	!LO:TX:t=P:problem=kreska pseudotaktowa	!
.	.	.	[<2d\	.	4f\	.	2a\	.
!	!	!	!	!	!LO:TX:t=P:problem=kreska pseudotaktowa	!	!	!
.	.	.	.	.	4d\	.	.	.
!	!	!	!	!	!	!	!LO:LB:g=original	!
=50-	=50-	=50-	=50-	=50-	=50-	=50-	=50-	=50-
1.ryy	2AA,/	-bis	4d\]	.	2en\	.	4a\	.
.	.	.	8c\L	.	.	.	4f/	.
.	.	.	8B-\J	.	.	.	.	.
!	!	!	!LO:TX:t=P:problem=kreska pseudotaktowa	!	!	!	!LO:TX:t=P:problem=kreska pseudotaktowa	!
.	2AA/	in-	1c	.	2e\	-bis	1e	.
*	*	*	*	*	*custos:f	*	*	*
!	!LO:TX:t=P:problem=kreska pseudotaktowa	!	!	!	!	!	!	!
!	!	!	!	!	!LO:TX:t=P:problem=kreska pseudotaktowa	!	!	!
.	2AA/	-ter-	.	.	2e\	pro	.	.
!	!	!	!	!	!LO:LB:g=original	!	!	!
=51-	=51-	=51-	=51-	=51-	=51-	=51-	=51-	=51-
1.ryy	2D/	-ce-	2d,\	-bis	2f\	no-	2d/	-bis
!	!	!	!	!	!LO:TX:t=P:problem=kreska pseudotaktowa	!	!	!
.	2GG/	-de	2G/	pro	[<1d	.	(>2g\	pro
!	!LO:TX:t=P:problem=kreska pseudotaktowa	!	!LO:TX:t=P:problem=kreska pseudotaktowa	!	!	!	!LO:TX:t=P:problem=kreska pseudotaktowa	!
.	2D/	pro	2F#X/	.	.	.	2a\)	.
=52-	=52-	=52-	=52-	=52-	=52-	=52-	=52-	=52-
!	!LO:TX:t=P:problem=kreska pseudotaktowa	!	!LO:TX:t=P:problem=kreska pseudotaktowa	!	!	!	!	!
1.ryy	1.D	no-	1.F#X	no-	1.d]	.	1.a	no-
=53-	=53-	=53-	=53-	=53-	=53-	=53-	=53-	=53-
!	!LO:TX:t=P:problem=napis za kreską na pięciolinii	!	!LO:TX:t=P:problem=napis za kreską na pięciolinii	!	!LO:TX:t=P:problem=napis za kreską na pięciolinii	!	!LO:TX:t=P:problem=napis za kreską na pięciolinii	!
!	!LO:TX:i:a:t=alleluia\nda Capo.	!	!LO:TX:i:a:t=alleluia da Capo.	!	!LO:TX:i:a:t=alleluia da Capo	!	!LO:TX:i:a:t=alleluia da Capo	!
!	!LO:N:vis=0	!	!LO:N:vis=0	!	!LO:N:vis=0	!	!LO:N:vis=0	!
1.ryy	1.GG;>	-bis.	1.G;>	-bis.	1.d;>	-bis.	1.bn;>	-bis.
==	==	==	==	==	==	==	==	==
*-	*-	*-	*-	*-	*-	*-	*-	*-
!!!system-decoration: [(s1,s2,s3,s4,s5)]
!!!RDF**kern: > = above
!!!RDF**kern: < = below
!!!EED: Mateusz Mrugas
!!!EEV: 2021-03-28
!!!ENC: Berenika Jozajtis
!!!END: 2021-03-10
